images/logo-bank-rnkb.svg

<svg width="73" height="45" viewBox="0 0 73 45" fill="none" xmlns="http://www.w3.org/2000/svg">
<path fill-rule="evenodd" clip-rule="evenodd" d="M66.8187 44.9949C66.9556 44.8035 71.1575 31.2226 71.4543 30.2875C71.7595 29.3255 72.8167 26.0961 72.9786 25.3775L6.15999 25.3832C5.98429 25.6515 5.49723 27.385 5.3521 27.8514L3.05293 35.2016C2.54181 36.8373 2.02348 38.4713 1.52172 40.0966C1.19437 41.1573 0.184114 44.1869 0 45L66.8187 44.9949ZM58.524 18.0229C58.2071 17.012 57.7465 15.9424 57.3742 14.9348C56.9941 13.9062 56.6037 12.8918 56.2183 11.8514C56.1271 11.6052 55.9487 11.3139 56.0253 11.0597C56.2926 10.1741 58.0223 6.18634 58.0419 5.75058L52.6838 5.75581L51.0261 9.81488L50.0283 9.80548L50.0059 5.75012L44.5026 5.76846L44.5019 17.9965C44.8096 18.0736 49.3034 18.024 50.0275 18.0254L50.0265 13.9612L51.3493 13.9783L53.0063 18.0252L58.5239 18.0226L58.524 18.0229ZM34.1791 13.9641L36.7126 13.9619L36.7127 18.0129L42.2386 18.0189L42.2208 5.75302C40.7246 5.73991 38.1124 5.7045 36.7135 5.76034L36.7114 9.81442L34.1795 9.81406L34.1715 5.76045C32.6161 5.70636 30.2944 5.75058 28.6579 5.75047L28.6574 18.0254L34.1791 18.0252V13.9641ZM65.5322 10.7471C68.0325 10.1686 68.2258 13.8071 66.4727 14.2286C63.9946 14.8242 63.6359 11.186 65.5322 10.7471ZM64.383 8.53336C64.4342 7.40889 65.263 6.49071 65.9802 6.129C67.5195 5.35243 69.3437 5.65354 70.862 5.02091C71.9242 4.5783 71.7666 4.37817 71.764 3.90364C71.7568 2.64046 71.8263 1.24379 71.7563 0C70.2689 0.334774 70.279 0.504251 68.3196 0.75034C64.8962 1.18041 61.9294 2.27423 60.1946 5.13362C59.1405 6.8711 58.7962 9.80397 59.0381 12.1338C59.2757 14.4215 60.1128 16.2219 62.0352 17.4296C64.9328 19.2502 72.2009 18.907 72.9227 13.646C73.4804 9.58017 70.9643 6.68479 67.1947 7.1671C65.3909 7.39787 64.8997 8.22459 64.3831 8.53336H64.383ZM21.3659 12.3864C20.9672 14.8036 18.363 14.231 17.9246 13.3061C17.8189 13.0831 17.88 11.7171 17.88 11.3706C17.88 10.4519 17.8087 10.4087 18.4329 9.9847C19.726 9.10645 21.753 10.0396 21.3657 12.3865L21.3659 12.3864ZM18.63 17.7945C18.8672 17.9356 19.1118 18.0275 19.3827 18.1247C19.9993 18.3464 20.5738 18.4322 21.2988 18.4329C25.3212 18.4369 27.3743 15.1795 27.0593 11.1556C26.7222 6.84881 23.5392 4.64737 19.9322 5.50786C18.8093 5.77566 17.6735 6.58067 17.2632 7.20669C17.1539 7.09119 17.1664 7.06101 17.1015 6.84626L16.7559 5.75186L12.3811 5.75035L12.4036 22.9307L17.9063 22.9172L17.9066 17.3282L18.6301 17.7947L18.63 17.7945Z" fill="black"/>
</svg>

<svg width="73" height="45" fill="none" xmlns="http://www.w3.org/2000/svg"><path fill-rule="evenodd" clip-rule="evenodd" d="M66.819 44.995c.137-.191 4.338-13.772 4.635-14.707.306-.962 1.363-4.192 1.525-4.91l-66.819.005c-.176.268-.663 2.002-.808 2.468l-2.3 7.35c-.51 1.636-1.029 3.27-1.53 4.896C1.194 41.157.184 44.187 0 45l66.819-.005zm-8.295-26.972c-.317-1.011-.778-2.08-1.15-3.088-.38-1.029-.77-2.043-1.156-3.084-.09-.246-.27-.537-.193-.791.268-.886 1.997-4.874 2.017-5.31l-5.358.006-1.658 4.059-.998-.01-.022-4.055-5.503.018-.001 12.229c.308.077 4.801.027 5.526.028l-.002-4.064 1.323.017 1.657 4.047 5.518-.002zm-24.345-4.059l2.534-.002v4.05l5.526.007-.018-12.266c-1.496-.013-4.109-.048-5.507.007l-.003 4.054H34.18l-.008-4.054c-1.555-.054-3.877-.01-5.513-.01v12.275h5.521v-4.06zm31.353-3.217c2.5-.578 2.694 3.06.94 3.482-2.477.595-2.836-3.043-.94-3.482zm-1.149-2.214c.051-1.124.88-2.042 1.597-2.404 1.54-.777 3.364-.475 4.882-1.108 1.062-.443.905-.643.902-1.117-.007-1.264.062-2.66-.008-3.904-1.487.335-1.477.504-3.436.75-3.424.43-6.39 1.524-8.125 4.384-1.054 1.737-1.399 4.67-1.157 7 .238 2.287 1.075 4.088 2.997 5.296 2.898 1.82 10.166 1.477 10.888-3.784.557-4.066-1.959-6.961-5.728-6.479-1.804.23-2.295 1.058-2.812 1.366zm-43.017 3.853c-.399 2.418-3.003 1.845-3.441.92-.106-.223-.045-1.589-.045-1.935 0-.92-.071-.962.553-1.386 1.293-.879 3.32.055 2.933 2.402zm-2.736 5.409a4.2 4.2 0 00.753.33c.616.221 1.19.307 1.916.308 4.022.004 6.075-3.253 5.76-7.277-.337-4.307-3.52-6.509-7.127-5.648-1.123.268-2.258 1.073-2.669 1.699-.11-.116-.097-.146-.162-.36l-.345-1.095-4.375-.002.023 17.18 5.502-.013v-5.589l.724.467z" fill="#000"/></svg>
